X:1
T:Title
%%score { ( 1 3 ) | ( 2 4 ) }
L:1/8
M:4/4
K:Ab
V:1 treble nm="Grand Piano"
V:3 treble 
V:2 bass 
V:4 bass 
V:1
 z4 z2[Q:1/4=100] [CE]2 | [CE]>[CE] [CE]>[CE] [DF]>[CE] [CF]>[CG] | [CA]4 [CE]2 [CEA]2 | %3
 G>G G>A B>=A B>E | c6 [CE]2 | [CE]>[CE] [CE]>[CE] [DF]>[CE] [DF]>[DG] | A4 z4 | %7
 [Fd]>[A,DF] [DFB]>[B,FA] [CEA]>[B,EG] [A,DF]>[B,DG] | [A,CA]6 z2 | F4 z4 | [CE]8 | %11
 [CEA]2 [B,=EG]2 [A,F]4 | [C=EG]8 | [DFB]>[DFB] [CEA]>[B,EG] [CEA]2 [A,CE]2 | %14
 [A,DF]>[A,FA] [A,EG]>[A,DF] [DF]2 [CE]2 | z4 B4 |[M:3/4] [CA]6 |] %17
V:2
 z4 z2 [A,,A,]2 | [A,,A,]>[A,,A,] [A,,A,]>[A,,A,] [A,,A,]>[A,,A,] [A,,A,]>[A,,A,] | %2
 [A,,A,]4 [A,,A,]2 A,,2 | [E,B,E]>[E,B,E] [E,B,D]>[E,A,C] [E,G,E]>[E,_G,E] [E,=G,E]>[E,G,] | %4
 [A,E]6 [A,,A,]2 | [A,,A,]>[B,,A,] [A,,A,]>[A,,A,] [A,,A,]>[A,,A,] [D,A,]>[B,,E,] | %6
 [A,,E,]2 [C,A,]2 [E,G,E]2 [A,E]2 | [D,A,]>D, D,>D, E,>E, E,>E, | A,,6 z2 | D,4 F,4 | A,8 | %11
 A,,2 C,2 D,4 | C,8 | B,,>B,, E,>E, A,,2 A,,2 | D,>D, D,>D, [A,,A,]2 [A,,A,]2 | z4 E2 z2 | %16
[M:3/4] [A,,A,]6 |] %17
V:3
 x8 | x8 | x8 | x8 | x8 | x8 | C2 E2 B2 c2 | x8 | x8 | [A,D]4- [A,DA]4 | x8 | x8 | x8 | x8 | x8 | %15
 c4 z2 D2 |[M:3/4] x6 |] %17
V:4
 x8 | x8 | x8 | x8 | x8 | x8 | x8 | x8 | x8 | x8 | x8 | x8 | x8 | x8 | x8 | [E,A,E]4 [E,G,]4 | %16
[M:3/4] x6 |] %17

